icons/modern/musical-note.svg

<svg width="32" height="32" viewBox="0 0 32 32" fill="none" xmlns="http://www.w3.org/2000/svg">
<g filter="url(#filter0_ii_18_18060)">
<path d="M29.478 3.09959C29.478 2.3774 28.8447 1.81881 28.1282 1.90898L11.493 4.00238C10.893 4.07789 10.4429 4.58818 10.4429 5.19299V24.4911H14.5874V10.0216C14.5874 9.51764 14.9625 9.0924 15.4625 9.02947L24.2086 7.92883C24.8058 7.85369 25.3335 8.31918 25.3335 8.92101V20.8036H29.478V3.09959Z" fill="url(#paint0_linear_18_18060)"/>
</g>
<path d="M29.478 3.09959C29.478 2.3774 28.8447 1.81881 28.1282 1.90898L11.493 4.00238C10.893 4.07789 10.4429 4.58818 10.4429 5.19299V24.4911H14.5874V10.0216C14.5874 9.51764 14.9625 9.0924 15.4625 9.02947L24.2086 7.92883C24.8058 7.85369 25.3335 8.31918 25.3335 8.92101V20.8036H29.478V3.09959Z" fill="url(#paint1_linear_18_18060)"/>
<path d="M29.478 3.09959C29.478 2.3774 28.8447 1.81881 28.1282 1.90898L11.493 4.00238C10.893 4.07789 10.4429 4.58818 10.4429 5.19299V24.4911H14.5874V10.0216C14.5874 9.51764 14.9625 9.0924 15.4625 9.02947L24.2086 7.92883C24.8058 7.85369 25.3335 8.31918 25.3335 8.92101V20.8036H29.478V3.09959Z" fill="url(#paint2_radial_18_18060)"/>
<path d="M29.478 3.09959C29.478 2.3774 28.8447 1.81881 28.1282 1.90898L11.493 4.00238C10.893 4.07789 10.4429 4.58818 10.4429 5.19299V24.4911H14.5874V10.0216C14.5874 9.51764 14.9625 9.0924 15.4625 9.02947L24.2086 7.92883C24.8058 7.85369 25.3335 8.31918 25.3335 8.92101V20.8036H29.478V3.09959Z" fill="url(#paint3_radial_18_18060)"/>
<path d="M29.478 3.09959C29.478 2.3774 28.8447 1.81881 28.1282 1.90898L11.493 4.00238C10.893 4.07789 10.4429 4.58818 10.4429 5.19299V24.4911H14.5874V10.0216C14.5874 9.51764 14.9625 9.0924 15.4625 9.02947L24.2086 7.92883C24.8058 7.85369 25.3335 8.31918 25.3335 8.92101V20.8036H29.478V3.09959Z" fill="url(#paint4_radial_18_18060)"/>
<circle cx="8.646" cy="24.1592" r="5.94141" fill="url(#paint5_radial_18_18060)"/>
<circle cx="8.646" cy="24.1592" r="5.94141" fill="url(#paint6_radial_18_18060)"/>
<circle cx="8.646" cy="24.1592" r="5.94141" fill="url(#paint7_radial_18_18060)"/>
<circle cx="8.646" cy="24.1592" r="5.94141" fill="url(#paint8_radial_18_18060)"/>
<circle cx="8.646" cy="24.1592" r="5.94141" fill="url(#paint9_radial_18_18060)"/>
<circle cx="23.5366" cy="20.7686" r="5.94141" fill="url(#paint10_radial_18_18060)"/>
<circle cx="23.5366" cy="20.7686" r="5.94141" fill="url(#paint11_radial_18_18060)"/>
<circle cx="23.5366" cy="20.7686" r="5.94141" fill="url(#paint12_radial_18_18060)"/>
<circle cx="23.5366" cy="20.7686" r="5.94141" fill="url(#paint13_radial_18_18060)"/>
<defs>
<filter id="filter0_ii_18_18060" x="9.69287" y="1.89941" width="20.5352" height="23.3416" filterUnits="userSpaceOnUse" color-interpolation-filters="sRGB">
<feFlood flood-opacity="0" result="BackgroundImageFix"/>
<feBlend mode="normal" in="SourceGraphic" in2="BackgroundImageFix" result="shape"/>
<feColorMatrix in="SourceAlpha" type="matrix" values="0 0 0 0 0 0 0 0 0 0 0 0 0 0 0 0 0 0 127 0" result="hardAlpha"/>
<feOffset dx="1" dy="1"/>
<feGaussianBlur stdDeviation="0.375"/>
<feComposite in2="hardAlpha" operator="arithmetic" k2="-1" k3="1"/>
<feColorMatrix type="matrix" values="0 0 0 0 0.235294 0 0 0 0 0.211765 0 0 0 0 0.266667 0 0 0 1 0"/>
<feBlend mode="normal" in2="shape" result="effect1_innerShadow_18_18060"/>
<feColorMatrix in="SourceAlpha" type="matrix" values="0 0 0 0 0 0 0 0 0 0 0 0 0 0 0 0 0 0 127 0" result="hardAlpha"/>
<feOffset dx="-1"/>
<feGaussianBlur stdDeviation="0.375"/>
<feComposite in2="hardAlpha" operator="arithmetic" k2="-1" k3="1"/>
<feColorMatrix type="matrix" values="0 0 0 0 0.317647 0 0 0 0 0.298039 0 0 0 0 0.341176 0 0 0 1 0"/>
<feBlend mode="normal" in2="effect1_innerShadow_18_18060" result="effect2_innerShadow_18_18060"/>
</filter>
<linearGradient id="paint0_linear_18_18060" x1="19.9604" y1="8.18482" x2="19.9604" y2="24.4911" gradientUnits="userSpaceOnUse">
<stop stop-color="#473B53"/>
<stop offset="1" stop-color="#433D4A"/>
</linearGradient>
<linearGradient id="paint1_linear_18_18060" x1="10.3107" y1="17.3205" x2="11.5366" y2="17.3205" gradientUnits="userSpaceOnUse">
<stop stop-color="#7E7C80"/>
<stop offset="1" stop-color="#39373D" stop-opacity="0"/>
</linearGradient>
<radialGradient id="paint2_radial_18_18060" cx="0" cy="0" r="1" gradientUnits="userSpaceOnUse" gradientTransform="translate(29.2047 2.22084) rotate(137.021) scale(2.3405 0.716969)">
<stop stop-color="#635A6D"/>
<stop offset="1" stop-color="#635A6D" stop-opacity="0"/>
</radialGradient>
<radialGradient id="paint3_radial_18_18060" cx="0" cy="0" r="1" gradientUnits="userSpaceOnUse" gradientTransform="translate(27.3179 17.2656) rotate(-51.1467) scale(1.44461 4.28044)">
<stop offset="0.582086" stop-color="#535254"/>
<stop offset="1" stop-color="#535254" stop-opacity="0"/>
</radialGradient>
<radialGradient id="paint4_radial_18_18060" cx="0" cy="0" r="1" gradientUnits="userSpaceOnUse" gradientTransform="translate(12.4741 20.3906) rotate(-47.1211) scale(1.49258 4.0639)">
<stop offset="0.381918" stop-color="#4F4D50"/>
<stop offset="1" stop-color="#4F4D50" stop-opacity="0"/>
</radialGradient>
<radialGradient id="paint5_radial_18_18060" cx="0" cy="0" r="1" gradientUnits="userSpaceOnUse" gradientTransform="translate(8.646 29.5001) rotate(-90) scale(6.75 9.28125)">
<stop stop-color="#442B58"/>
<stop offset="1" stop-color="#38353B"/>
</radialGradient>
<radialGradient id="paint6_radial_18_18060" cx="0" cy="0" r="1" gradientUnits="userSpaceOnUse" gradientTransform="translate(11.7397 22.5001) rotate(130.389) scale(5.49787)">
<stop stop-color="#5A585C"/>
<stop offset="1" stop-color="#5A585C" stop-opacity="0"/>
</radialGradient>
<radialGradient id="paint7_radial_18_18060" cx="0" cy="0" r="1" gradientUnits="userSpaceOnUse" gradientTransform="translate(10.8647 24.6251) rotate(-169.765) scale(9.14552 9.40265)">
<stop offset="0.619372" stop-color="#5C5C5C" stop-opacity="0"/>
<stop offset="1" stop-color="#828282"/>
</radialGradient>
<radialGradient id="paint8_radial_18_18060" cx="0" cy="0" r="1" gradientUnits="userSpaceOnUse" gradientTransform="translate(7.29747 24.1592) scale(8.19062 10.8866)">
<stop offset="0.796178" stop-color="#575658" stop-opacity="0"/>
<stop offset="0.955414" stop-color="#575658"/>
</radialGradient>
<radialGradient id="paint9_radial_18_18060" cx="0" cy="0" r="1" gradientUnits="userSpaceOnUse" gradientTransform="translate(8.646 23.5883) rotate(90) scale(6.75342 6.8464)">
<stop offset="0.880531" stop-color="#64487C" stop-opacity="0"/>
<stop offset="1" stop-color="#64487C"/>
</radialGradient>
<radialGradient id="paint10_radial_18_18060" cx="0" cy="0" r="1" gradientUnits="userSpaceOnUse" gradientTransform="translate(23.5366 26.1094) rotate(-90) scale(6.75 9.28125)">
<stop offset="0.162324" stop-color="#442B58"/>
<stop offset="1" stop-color="#38353B"/>
</radialGradient>
<radialGradient id="paint11_radial_18_18060" cx="0" cy="0" r="1" gradientUnits="userSpaceOnUse" gradientTransform="translate(27.8335 19.2188) rotate(139.445) scale(6.27234 5.45698)">
<stop stop-color="#5F5F60"/>
<stop offset="1" stop-color="#5F5F60" stop-opacity="0"/>
</radialGradient>
<radialGradient id="paint12_radial_18_18060" cx="0" cy="0" r="1" gradientUnits="userSpaceOnUse" gradientTransform="translate(22.1881 20.7686) scale(8.19062 10.8866)">
<stop offset="0.796178" stop-color="#575658" stop-opacity="0"/>
<stop offset="0.955414" stop-color="#575658"/>
</radialGradient>
<radialGradient id="paint13_radial_18_18060" cx="0" cy="0" r="1" gradientUnits="userSpaceOnUse" gradientTransform="translate(23.5366 20.1977) rotate(90) scale(6.75342 6.8464)">
<stop offset="0.880531" stop-color="#64487C" stop-opacity="0"/>
<stop offset="1" stop-color="#64487C"/>
</radialGradient>
</defs>
</svg>

<svg width="32" height="32" fill="none" xmlns="http://www.w3.org/2000/svg"><g filter="url(#a)"><path d="M29.478 3.1a1.2 1.2 0 0 0-1.35-1.191L11.493 4.002a1.2 1.2 0 0 0-1.05 1.191v19.298h4.144v-14.47a1 1 0 0 1 .876-.992l8.746-1.1a1 1 0 0 1 1.125.992v11.883h4.144V3.1Z" fill="url(#b)"/></g><path d="M29.478 3.1a1.2 1.2 0 0 0-1.35-1.191L11.493 4.002a1.2 1.2 0 0 0-1.05 1.191v19.298h4.144v-14.47a1 1 0 0 1 .876-.992l8.746-1.1a1 1 0 0 1 1.125.992v11.883h4.144V3.1Z" fill="url(#c)"/><path d="M29.478 3.1a1.2 1.2 0 0 0-1.35-1.191L11.493 4.002a1.2 1.2 0 0 0-1.05 1.191v19.298h4.144v-14.47a1 1 0 0 1 .876-.992l8.746-1.1a1 1 0 0 1 1.125.992v11.883h4.144V3.1Z" fill="url(#d)"/><path d="M29.478 3.1a1.2 1.2 0 0 0-1.35-1.191L11.493 4.002a1.2 1.2 0 0 0-1.05 1.191v19.298h4.144v-14.47a1 1 0 0 1 .876-.992l8.746-1.1a1 1 0 0 1 1.125.992v11.883h4.144V3.1Z" fill="url(#e)"/><path d="M29.478 3.1a1.2 1.2 0 0 0-1.35-1.191L11.493 4.002a1.2 1.2 0 0 0-1.05 1.191v19.298h4.144v-14.47a1 1 0 0 1 .876-.992l8.746-1.1a1 1 0 0 1 1.125.992v11.883h4.144V3.1Z" fill="url(#f)"/><circle cx="8.646" cy="24.159" r="5.941" fill="url(#g)"/><circle cx="8.646" cy="24.159" r="5.941" fill="url(#h)"/><circle cx="8.646" cy="24.159" r="5.941" fill="url(#i)"/><circle cx="8.646" cy="24.159" r="5.941" fill="url(#j)"/><circle cx="8.646" cy="24.159" r="5.941" fill="url(#k)"/><circle cx="23.537" cy="20.769" r="5.941" fill="url(#l)"/><circle cx="23.537" cy="20.769" r="5.941" fill="url(#m)"/><circle cx="23.537" cy="20.769" r="5.941" fill="url(#n)"/><circle cx="23.537" cy="20.769" r="5.941" fill="url(#o)"/><defs><radialGradient id="d" cx="0" cy="0" r="1" gradientUnits="userSpaceOnUse" gradientTransform="matrix(-1.71232 1.59559 -.48878 -.52454 29.205 2.22)"><stop stop-color="#635A6D"/><stop offset="1" stop-color="#635A6D" stop-opacity="0"/></radialGradient><radialGradient id="e" cx="0" cy="0" r="1" gradientUnits="userSpaceOnUse" gradientTransform="matrix(.90625 -1.125 3.33341 2.68524 27.318 17.266)"><stop offset=".582" stop-color="#535254"/><stop offset="1" stop-color="#535254" stop-opacity="0"/></radialGradient><radialGradient id="f" cx="0" cy="0" r="1" gradientUnits="userSpaceOnUse" gradientTransform="rotate(-47.121 29.617 -4.108) scale(1.49258 4.0639)"><stop offset=".382" stop-color="#4F4D50"/><stop offset="1" stop-color="#4F4D50" stop-opacity="0"/></radialGradient><radialGradient id="g" cx="0" cy="0" r="1" gradientUnits="userSpaceOnUse" gradientTransform="matrix(0 -6.75 9.28125 0 8.646 29.5)"><stop stop-color="#442B58"/><stop offset="1" stop-color="#38353B"/></radialGradient><radialGradient id="h" cx="0" cy="0" r="1" gradientUnits="userSpaceOnUse" gradientTransform="rotate(130.389 .67 13.963) scale(5.49787)"><stop stop-color="#5A585C"/><stop offset="1" stop-color="#5A585C" stop-opacity="0"/></radialGradient><radialGradient id="i" cx="0" cy="0" r="1" gradientUnits="userSpaceOnUse" gradientTransform="rotate(-169.765 6.535 11.826) scale(9.14552 9.40265)"><stop offset=".619" stop-color="#5C5C5C" stop-opacity="0"/><stop offset="1" stop-color="#828282"/></radialGradient><radialGradient id="j" cx="0" cy="0" r="1" gradientUnits="userSpaceOnUse" gradientTransform="matrix(8.19062 0 0 10.8866 7.297 24.16)"><stop offset=".796" stop-color="#575658" stop-opacity="0"/><stop offset=".955" stop-color="#575658"/></radialGradient><radialGradient id="k" cx="0" cy="0" r="1" gradientUnits="userSpaceOnUse" gradientTransform="matrix(0 6.75342 -6.8464 0 8.646 23.588)"><stop offset=".881" stop-color="#64487C" stop-opacity="0"/><stop offset="1" stop-color="#64487C"/></radialGradient><radialGradient id="l" cx="0" cy="0" r="1" gradientUnits="userSpaceOnUse" gradientTransform="matrix(0 -6.75 9.28125 0 23.537 26.11)"><stop offset=".162" stop-color="#442B58"/><stop offset="1" stop-color="#38353B"/></radialGradient><radialGradient id="m" cx="0" cy="0" r="1" gradientUnits="userSpaceOnUse" gradientTransform="rotate(139.445 10.366 14.751) scale(6.27234 5.45698)"><stop stop-color="#5F5F60"/><stop offset="1" stop-color="#5F5F60" stop-opacity="0"/></radialGradient><radialGradient id="n" cx="0" cy="0" r="1" gradientUnits="userSpaceOnUse" gradientTransform="matrix(8.19062 0 0 10.8866 22.188 20.769)"><stop offset=".796" stop-color="#575658" stop-opacity="0"/><stop offset=".955" stop-color="#575658"/></radialGradient><radialGradient id="o" cx="0" cy="0" r="1" gradientUnits="userSpaceOnUse" gradientTransform="matrix(0 6.75342 -6.8464 0 23.537 20.198)"><stop offset=".881" stop-color="#64487C" stop-opacity="0"/><stop offset="1" stop-color="#64487C"/></radialGradient><linearGradient id="b" x1="19.96" y1="8.185" x2="19.96" y2="24.491" gradientUnits="userSpaceOnUse"><stop stop-color="#473B53"/><stop offset="1" stop-color="#433D4A"/></linearGradient><linearGradient id="c" x1="10.311" y1="17.32" x2="11.537" y2="17.32" gradientUnits="userSpaceOnUse"><stop stop-color="#7E7C80"/><stop offset="1" stop-color="#39373D" stop-opacity="0"/></linearGradient><filter id="a" x="9.693" y="1.899" width="20.535" height="23.342" filterUnits="userSpaceOnUse" color-interpolation-filters="sRGB"><feFlood flood-opacity="0" result="BackgroundImageFix"/><feBlend in="SourceGraphic" in2="BackgroundImageFix" result="shape"/><feColorMatrix in="SourceAlpha" values="0 0 0 0 0 0 0 0 0 0 0 0 0 0 0 0 0 0 127 0" result="hardAlpha"/><feOffset dx="1" dy="1"/><feGaussianBlur stdDeviation=".375"/><feComposite in2="hardAlpha" operator="arithmetic" k2="-1" k3="1"/><feColorMatrix values="0 0 0 0 0.235294 0 0 0 0 0.211765 0 0 0 0 0.266667 0 0 0 1 0"/><feBlend in2="shape" result="effect1_innerShadow_18_18060"/><feColorMatrix in="SourceAlpha" values="0 0 0 0 0 0 0 0 0 0 0 0 0 0 0 0 0 0 127 0" result="hardAlpha"/><feOffset dx="-1"/><feGaussianBlur stdDeviation=".375"/><feComposite in2="hardAlpha" operator="arithmetic" k2="-1" k3="1"/><feColorMatrix values="0 0 0 0 0.317647 0 0 0 0 0.298039 0 0 0 0 0.341176 0 0 0 1 0"/><feBlend in2="effect1_innerShadow_18_18060" result="effect2_innerShadow_18_18060"/></filter></defs></svg>
